packages/icons/src/components/Logo/assets/dark/proxmox.svg

<svg width="20" height="20" viewBox="0 0 20 20" fill="none" xmlns="http://www.w3.org/2000/svg">
<path d="M10.0001 9.44279L3.3752 2.1569C3.63219 1.89993 3.93153 1.69802 4.27322 1.55116C4.61493 1.40433 4.98204 1.3295 5.37455 1.32666C5.79145 1.32985 6.17339 1.41245 6.52037 1.57446C6.86737 1.7365 7.16883 1.95888 7.42474 2.24162L10.0002 5.05426L12.5587 2.24162C12.8238 1.95888 13.1323 1.7365 13.4842 1.57446C13.8361 1.41245 14.2167 1.32985 14.6258 1.32666C15.0183 1.3295 15.3854 1.40433 15.7271 1.55116C16.0688 1.69802 16.3682 1.89993 16.6251 2.1569L10 9.44259" fill="white"/>
<path d="M10 10.5576L16.6249 17.8435C16.368 18.1005 16.0686 18.3024 15.7269 18.4493C15.3852 18.5961 15.0181 18.6709 14.6256 18.6738C14.2087 18.6706 13.8268 18.588 13.4798 18.426C13.1328 18.2639 12.8313 18.0415 12.5754 17.7588L9.99998 14.9462L7.44148 17.7588C7.17638 18.0415 6.86787 18.2639 6.51593 18.426C6.164 18.588 5.78347 18.6706 5.37436 18.6738C4.98183 18.6709 4.61471 18.5961 4.27302 18.4493C3.93132 18.3024 3.63198 18.1005 3.375 17.8435L10.0001 10.5578" fill="white"/>
<path d="M9.44282 10.0003L4.45242 4.52758C4.16216 4.21801 3.82436 3.97452 3.43903 3.79711C3.05369 3.61972 2.63705 3.52928 2.18911 3.52579C1.75932 3.52889 1.35737 3.61083 0.983243 3.7716C0.609115 3.93239 0.281368 4.15347 0 4.43482L5.06463 10.0004L0 15.5659C0.281367 15.8561 0.609115 16.0826 0.983243 16.2453C1.35737 16.408 1.75932 16.4908 2.18911 16.4935C2.63821 16.49 3.05717 16.3996 3.44599 16.2222C3.8348 16.0448 4.17028 15.8013 4.45242 15.4917L9.44282 10.0003Z" fill="#E57000"/>
<path d="M10.5572 10.0003L15.5476 4.52758C15.8378 4.21801 16.1756 3.97452 16.561 3.79711C16.9463 3.61972 17.363 3.52928 17.8109 3.52579C18.2407 3.52889 18.6426 3.61083 19.0168 3.7716C19.3909 3.93239 19.7186 4.15347 20 4.43482L14.9354 10.0004L20 15.5659C19.7186 15.8561 19.3909 16.0826 19.0168 16.2453C18.6426 16.408 18.2407 16.4908 17.8109 16.4935C17.3618 16.49 16.9428 16.3996 16.554 16.2222C16.1652 16.0448 15.8297 15.8013 15.5476 15.4917L10.5572 10.0003Z" fill="#E57000"/>
</svg>

<svg xmlns="http://www.w3.org/2000/svg" width="20" height="20" fill="none" viewBox="0 0 20 20">
    <path fill="#fff" d="M10 9.443 3.375 2.157a2.85 2.85 0 0 1 2-.83 2.73 2.73 0 0 1 2.05.915L10 5.054l2.559-2.812q.397-.425.925-.668a2.75 2.75 0 0 1 1.142-.247q.589.003 1.101.224.513.22.898.606zm0 1.115 6.625 7.285a2.85 2.85 0 0 1-2 .83 2.73 2.73 0 0 1-2.05-.914L10 14.946 7.441 17.76a3 3 0 0 1-.925.667 2.75 2.75 0 0 1-1.142.248 2.85 2.85 0 0 1-2-.83z"/>
    <path fill="#e57000" d="m9.443 10-4.99-5.472a3.2 3.2 0 0 0-1.014-.73 3 3 0 0 0-1.25-.272q-.645.004-1.206.246-.561.24-.983.663L5.065 10 0 15.566a3.05 3.05 0 0 0 2.19.928 3.07 3.07 0 0 0 2.263-1.002zm1.114 0 4.99-5.472q.436-.465 1.014-.73a3 3 0 0 1 1.25-.272q.645.004 1.206.246.561.24.983.663L14.935 10 20 15.566a3.05 3.05 0 0 1-2.19.928 3.07 3.07 0 0 1-2.263-1.002z"/>
</svg>
